X: 21587
T: Killaloe Boat, The
R: jig
M: 6/8
K: Adorian
G|EAA ABc|BAB GBd|edB edB|~c3 BAG|
EDE ABc|BAB G2d|edB edB|BAG A2:|
d|def ~g3|age edB|def ~g3|age age|
def gab|age edB|edB edB|BAG A2:|

